packages/foundations/assets/icons/functional/images/communication/envelope_16.svg

<svg width="16" height="16" viewBox="0 0 16 16" fill="none" xmlns="http://www.w3.org/2000/svg">
<g clip-path="url(#clip0_185_455)">
<path fill-rule="evenodd" clip-rule="evenodd" d="M12.8 3.20001C13.675 3.20001 14.4 3.90001 14.4 4.80001V11.2C14.4 12.0751 13.675 12.8 12.8 12.8H3.19998C2.32494 12.8 1.59998 12.0751 1.59998 11.2V4.80001C1.59998 3.92497 2.32494 3.20001 3.19998 3.20001H12.8ZM12.8 6.60001L7.99998 10.2L3.19998 6.62497V11.2H12.8V6.60001ZM12.5249 4.80001H3.44998L7.99998 8.20001L12.5249 4.80001Z" fill="#1A1C1F"/>
</g>
<defs>
<clipPath id="clip0_185_455">
<rect width="16" height="16" fill="white"/>
</clipPath>
</defs>
</svg>

<svg xmlns="http://www.w3.org/2000/svg" width="16" height="16" fill="none"><g clip-path="url(#a)"><path fill="#1A1C1F" fill-rule="evenodd" d="M12.8 3.2c.875 0 1.6.7 1.6 1.6v6.4c0 .875-.725 1.6-1.6 1.6H3.2c-.875 0-1.6-.725-1.6-1.6V4.8c0-.875.725-1.6 1.6-1.6zm0 3.4L8 10.2 3.2 6.625V11.2h9.6zm-.275-1.8H3.45L8 8.2z" clip-rule="evenodd"/></g><defs><clipPath id="a"><path fill="#fff" d="M0 0h16v16H0z"/></clipPath></defs></svg>
